X:1
T:Title
%%score { 1 | 2 }
L:1/8
M:6/8
K:A
V:1 treble nm="Grand Piano"
V:2 bass 
V:1
 z3 z2[Q:1/4=100] [CA]/[DB]/ | [Ec]>[Ec][Ec] [Ec]>[EB][EA] | [FB]>[FA]F E2 A | c>cc c>BA | %4
[M:5/8] c>BA B2 |[M:1/8] [CA]/[DB]/ |[M:3/4] [Ec]>[Ec] [Ec][Ec]- [Ec]/[EB]/[EA] | %7
 [FB]>[FA] [DF] [CE]2 [CE] | [DF]>[DF] [Fd] c2 B/A/ |[M:5/8] B<FG [CA]2 |[M:1/8] [EA] | %11
[M:3/4] B>B BB- B/c/d | d>c B c2 c | e>d cc- c/B/A |[M:5/8] c>BA B2 |[M:1/8] [CA]/[DB]/ | %16
[M:3/4] [Ec]>[Ec] [Ec][Ec]- [Ec]/[EB]/[EA] | [FB]>[FA] [DF] [CE]2 [CE] | [DF]>[DF] [Fd] c2 B/A/ | %19
[M:13/8] B<FG .[CA]3 z z z z z z2 |] %20
V:2
 z3 z2 [A,,A,] | [A,,A,]>[A,,A,][A,,A,] [A,,A,]>[B,,G,][C,A,] | [D,A,]>[D,A,][D,A,D] [A,C]2 [A,C] | %3
 [A,E]>[A,E][A,E] [A,E]>[A,DE][A,CE] |[M:5/8] [A,E]>[A,DE][A,CE] [E,G,E]2 |[M:1/8] [A,,A,] | %6
[M:3/4] [A,,A,]>[A,,A,] [A,,A,][A,,A,]- [A,,A,]/[B,,G,]/[C,A,] | %7
 [D,A,]>[D,A,] [D,A,] [A,,A,]2 [A,,A,] | [D,A,]>[D,A,] [D,A,] [E,A,E]2 [E,G,D]/[E,A,C]/ | %9
[M:5/8] [E,G,D]<[E,B,D][E,B,D] [A,,A,]2 |[M:1/8] [C,A,] | %11
[M:3/4] [E,G,E]>[E,G,E] [E,G,E][E,G,E]- [E,G,E]/[E,A,E]/[E,B,E] | %12
 [E,B,E]>[E,A,E] [E,G,E][K:treble] [A,E]2 [A,EA] | %13
 [A,CA]>[A,FA] [A,EA][A,EA]- [A,EA]/[A,DE]/[A,CE] |[M:5/8] [A,EA]>[K:bass][A,DE][A,CE] [E,G,E]2 | %15
[M:1/8] [A,,A,] |[M:3/4] [A,,A,]>[A,,A,] [A,,A,][A,,A,]- [A,,A,]/[B,,G,]/[C,A,] | %17
 [D,A,]>[D,A,] [D,A,] [A,,A,]2 [A,,A,] | [D,A,]>[D,A,] [D,A,] [E,A,E]2 [E,G,D]/[E,A,C]/ | %19
[M:13/8] [E,G,D]<[E,B,D][E,B,D] .[A,,A,]3 z z z z z z2 |] %20

